X:326
T: KOMMT HER IHR LIEBEN SCHWESTERLEIN
N: E0939
O: Europa, Mitteleuropa, Deutschland
R: Tanz - Lied, Reigen, geistlich; Abend
M: 4/4
L: 1/4
K: F
F | ccFF | ccF
F | ccFF | ccF2
c2dc | BAGG | F2z2
c2dc | BAGG | F2z
G | GGGF | EFG
G | GGGF | EFG2 | z
BAF | GGFF | F4

